X: 24314
T: Lough Gill
R: jig
M: 6/8
K: Gmajor
|:DGG BGG|dGG BGG|DFA DFA|DFA cBA|
DGG BGG|dGG BGG|AAA dcA|1 AGF G2E:|2 AGF G2B||
|:dgg bgb|afa gee|A^ce a2g|fag fef|
dgg bgb|afa gee|ABc dcA|1 AGF G2B:|2 AGF G3||

